static/img/in-field/switch-icon-left.svg

<svg fill="none" height="56" viewBox="0 0 118 56" width="118" xmlns="http://www.w3.org/2000/svg"><g fill="#252a2e"><path d="m8.00008 15.6667c-.5894 0-1.14893.1171-1.65848.3284-.51016.2116-1.09522-.0305-1.30678-.5407-.21155-.5101.03051-1.0952.54067-1.3067.74814-.3103 1.56769-.481 2.42459-.481h2.00002c.5523 0 1 .4477 1 1s-.4477 1-1 1z"/><path d="m13.0001 14.6667c0-.5523.4477-1 1-1h4c.5523 0 1 .4477 1 1s-.4477 1-1 1h-4c-.5523 0-1-.4477-1-1z"/><path d="m21.0001 14.6667c0-.5523.4477-1 1-1h2c.8569 0 1.6764.1707 2.4246.481.5101.2115.7522.7966.5406 1.3067-.2115.5102-.7966.7523-1.3067.5407-.5096-.2113-1.0691-.3284-1.6585-.3284h-2c-.5523 0-1-.4477-1-1z"/><path d="m3.4545 17.0348c.51016.2115.75223.7966.54067 1.3067-.2113.5096-.32842 1.0691-.32842 1.6585v2c0 .5523-.44772 1-1 1-.55229 0-1-.4477-1-1v-2c0-.8569.17073-1.6764.48097-2.4246.21155-.5101.79662-.7522 1.30678-.5406z"/><path d="m28.5457 17.0348c.5101-.2116 1.0952.0305 1.3067.5406.3103.7482.481 1.5677.481 2.4246v2c0 .5523-.4477 1-1 1s-1-.4477-1-1v-2c0-.5894-.1171-1.1489-.3284-1.6585-.2116-.5101.0305-1.0952.5407-1.3067z"/><path d="m2.66675 25c.55228 0 1 .4477 1 1v4c0 .5523-.44772 1-1 1-.55229 0-1-.4477-1-1v-4c0-.5523.44771-1 1-1z"/><path d="m29.3334 25c.5523 0 1 .4477 1 1v4c0 .5523-.4477 1-1 1s-1-.4477-1-1v-4c0-.5523.4477-1 1-1z"/><path d="m2.66675 33c.55228 0 1 .4477 1 1v2c0 .5894.11712 1.149.32842 1.6585.21155.5102-.03051 1.0952-.54067 1.3068-.51016.2115-1.09523-.0305-1.30678-.5407-.31024-.7481-.48097-1.5677-.48097-2.4246v-2c0-.5523.44771-1 1-1z"/><path d="m29.3334 33c.5523 0 1 .4477 1 1v2c0 .8569-.1707 1.6765-.481 2.4246-.2115.5102-.7966.7522-1.3067.5407-.5102-.2116-.7523-.7966-.5407-1.3068.2113-.5095.3284-1.0691.3284-1.6585v-2c0-.5523.4477-1 1-1z"/><path d="m5.03482 40.5456c.21155-.5102.79662-.7522 1.30678-.5407.50955.2113 1.06908.3285 1.65848.3285h2.00002c.5523 0 1 .4477 1 1 0 .5522-.4477 1-1 1h-2.00002c-.8569 0-1.67645-.1708-2.42459-.481-.51016-.2116-.75222-.7966-.54067-1.3068z"/><path d="m26.9653 40.5456c.2116.5102-.0305 1.0952-.5406 1.3068-.7482.3102-1.5677.481-2.4246.481h-2c-.5523 0-1-.4478-1-1 0-.5523.4477-1 1-1h2c.5894 0 1.1489-.1172 1.6585-.3285.5101-.2115 1.0952.0305 1.3067.5407z"/><path d="m13.0001 41.3334c0-.5523.4477-1 1-1h4c.5523 0 1 .4477 1 1 0 .5522-.4477 1-1 1h-4c-.5523 0-1-.4478-1-1z"/><path d="m27.3739 18.1213c.3905-.3905.3905-1.0236 0-1.4142-.3906-.3905-1.0237-.3905-1.4143 0l-1.3282 1.3283c-.3906.3905-.3906 1.0237 0 1.4142.3905.3905 1.0237.3905 1.4142 0z"/><path d="m23.389 22.1062c.3905-.3905.3905-1.0237 0-1.4142-.3905-.3906-1.0237-.3906-1.4142 0l-2.6566 2.6565c-.3905.3905-.3905 1.0237 0 1.4142.3906.3906 1.0237.3906 1.4143 0z"/><path d="m18.0759 27.4193c.3905-.3905.3905-1.0237 0-1.4142s-1.0237-.3905-1.4142 0l-.6616.6616-.6616-.6616c-.3906-.3905-1.0237-.3905-1.4142 0-.3906.3905-.3906 1.0237 0 1.4142l.6616.6616-.5808.5807c-.3905.3906-.3905 1.0237 0 1.4142.3906.3906 1.0237.3906 1.4143 0l.5807-.5807.5807.5807c.3905.3906 1.0237.3906 1.4142 0 .3905-.3905.3905-1.0236 0-1.4142l-.5807-.5807z"/><path d="m12.7628 32.7324c.3905-.3905.3905-1.0237 0-1.4142s-1.0237-.3905-1.4142 0l-2.65658 2.6565c-.39052.3906-.39052 1.0237 0 1.4143.39053.3905 1.02369.3905 1.41418 0z"/><path d="m7.44968 38.0455c.39052-.3905.39052-1.0237 0-1.4142-.39053-.3905-1.02369-.3905-1.41421 0l-1.32828 1.3283c-.39053.3905-.39053 1.0237 0 1.4142.39052.3905 1.02369.3905 1.41421 0z"/><path d="m25.8788 39.3738c.3905.3905 1.0237.3905 1.4142 0s.3905-1.0237 0-1.4142l-1.3283-1.3283c-.3905-.3905-1.0237-.3905-1.4142 0s-.3905 1.0237 0 1.4142z"/><path d="m21.8939 35.389c.3906.3905 1.0237.3905 1.4142 0 .3906-.3906.3906-1.0237 0-1.4143l-2.6565-2.6565c-.3905-.3905-1.0237-.3905-1.4142 0-.3906.3905-.3906 1.0237 0 1.4142z"/><path d="m11.2677 24.7627c.3905.3906 1.0237.3906 1.4142 0 .3905-.3905.3905-1.0237 0-1.4142l-2.6565-2.6565c-.39057-.3906-1.02374-.3906-1.41426 0-.39052.3905-.39052 1.0237 0 1.4142z"/><path d="m5.95458 19.4496c.39053.3905 1.02369.3905 1.41422 0 .39052-.3905.39052-1.0237 0-1.4142l-1.32828-1.3283c-.39053-.3905-1.02369-.3905-1.41421 0-.39053.3906-.39053 1.0237 0 1.4142z"/><path d="m12.0747 21.1854c.3971-.1203.8194-.1854 1.2587-.1854h1c.5523 0 1-.4477 1-1s-.4477-1-1-1h-1c-.6379 0-1.2555.0947-1.8387.2713-.5285.1602-.8272.7185-.667 1.247.1601.5286.7184.8272 1.247.6671z"/><path d="m17.6667 19c-.5522 0-1 .4477-1 1s.4478 1 1 1h1c.4394 0 .8617.0651 1.2588.1854.5286.1601 1.0869-.1385 1.247-.6671.1601-.5285-.1385-1.0868-.6671-1.247-.5831-.1766-1.2007-.2713-1.8387-.2713z"/><path d="m9.18546 24.0746c.16014-.5286-.13853-1.0869-.66709-1.247-.52855-.1601-1.08685.1385-1.24699.6671-.17667.5831-.2713 1.2007-.2713 1.8387v1c0 .5522.44772 1 1 1 .55229 0 1-.4478 1-1v-1c0-.4394.06506-.8617.18538-1.2588z"/><path d="m24.7288 23.4947c-.1602-.5286-.7185-.8272-1.247-.6671-.5286.1601-.8272.7184-.6671 1.247.1203.3971.1854.8194.1854 1.2588v1c0 .5522.4477 1 1 1s1-.4478 1-1v-1c0-.638-.0946-1.2556-.2713-1.8387z"/><path d="m9.00008 29.6667c0-.5523-.44771-1-1-1-.55228 0-1 .4477-1 1v1c0 .6379.09463 1.2555.2713 1.8387.16014.5285.71844.8272 1.24699.667.52856-.1601.82723-.7184.66709-1.247-.12032-.3971-.18538-.8194-.18538-1.2587z"/><path d="m25.0001 29.6667c0-.5523-.4477-1-1-1s-1 .4477-1 1v1c0 .4393-.0651.8616-.1854 1.2587-.1601.5286.1385 1.0869.6671 1.247.5285.1602 1.0868-.1385 1.247-.667.1767-.5832.2713-1.2008.2713-1.8387z"/><path d="m12.0747 34.8146c-.5286-.1601-1.0869.1386-1.247.6671-.1602.5286.1385 1.0869.667 1.247.5832.1767 1.2008.2713 1.8387.2713h1c.5523 0 1-.4477 1-1s-.4477-1-1-1h-1c-.4393 0-.8616-.065-1.2587-.1854z"/><path d="m20.5054 36.7287c.5286-.1601.8272-.7184.6671-1.247-.1601-.5285-.7184-.8272-1.247-.6671-.3971.1204-.8194.1854-1.2588.1854h-1c-.5522 0-1 .4477-1 1s.4478 1 1 1h1c.638 0 1.2556-.0946 1.8387-.2713z"/></g><rect fill="#217cbb" height="32" rx="16" transform="matrix(1 0 0 -1 47 44)" width="64"/><path d="m108 28c0 7.1797-5.82 13-13 13-7.1797 0-13-5.8203-13-13s5.8203-13 13-13c7.18 0 13 5.8203 13 13z" fill="#fff"/></svg>

<svg width="118" height="56" viewBox="0 0 118 56" fill="none" xmlns="http://www.w3.org/2000/svg">
<path d="M8.00008 15.6667C7.41068 15.6667 6.85115 15.7838 6.3416 15.9951C5.83144 16.2067 5.24638 15.9646 5.03482 15.4544C4.82327 14.9443 5.06533 14.3592 5.57549 14.1477C6.32363 13.8374 7.14318 13.6667 8.00008 13.6667H10.0001C10.5524 13.6667 11.0001 14.1144 11.0001 14.6667C11.0001 15.219 10.5524 15.6667 10.0001 15.6667H8.00008Z" fill="#252A2E"/>
<path d="M13.0001 14.6667C13.0001 14.1144 13.4478 13.6667 14.0001 13.6667H18.0001C18.5524 13.6667 19.0001 14.1144 19.0001 14.6667C19.0001 15.219 18.5524 15.6667 18.0001 15.6667H14.0001C13.4478 15.6667 13.0001 15.219 13.0001 14.6667Z" fill="#252A2E"/>
<path d="M21.0001 14.6667C21.0001 14.1144 21.4478 13.6667 22.0001 13.6667H24.0001C24.857 13.6667 25.6765 13.8374 26.4247 14.1477C26.9348 14.3592 27.1769 14.9443 26.9653 15.4544C26.7538 15.9646 26.1687 16.2067 25.6586 15.9951C25.149 15.7838 24.5895 15.6667 24.0001 15.6667H22.0001C21.4478 15.6667 21.0001 15.219 21.0001 14.6667Z" fill="#252A2E"/>
<path d="M3.4545 17.0348C3.96466 17.2463 4.20673 17.8314 3.99517 18.3415C3.78387 18.8511 3.66675 19.4106 3.66675 20V22C3.66675 22.5523 3.21903 23 2.66675 23C2.11446 23 1.66675 22.5523 1.66675 22V20C1.66675 19.1431 1.83748 18.3236 2.14772 17.5754C2.35927 17.0653 2.94434 16.8232 3.4545 17.0348Z" fill="#252A2E"/>
<path d="M28.5457 17.0348C29.0558 16.8232 29.6409 17.0653 29.8524 17.5754C30.1627 18.3236 30.3334 19.1431 30.3334 20V22C30.3334 22.5523 29.8857 23 29.3334 23C28.7811 23 28.3334 22.5523 28.3334 22V20C28.3334 19.4106 28.2163 18.8511 28.005 18.3415C27.7934 17.8314 28.0355 17.2463 28.5457 17.0348Z" fill="#252A2E"/>
<path d="M2.66675 25C3.21903 25 3.66675 25.4477 3.66675 26V30C3.66675 30.5523 3.21903 31 2.66675 31C2.11446 31 1.66675 30.5523 1.66675 30V26C1.66675 25.4477 2.11446 25 2.66675 25Z" fill="#252A2E"/>
<path d="M29.3334 25C29.8857 25 30.3334 25.4477 30.3334 26V30C30.3334 30.5523 29.8857 31 29.3334 31C28.7811 31 28.3334 30.5523 28.3334 30V26C28.3334 25.4477 28.7811 25 29.3334 25Z" fill="#252A2E"/>
<path d="M2.66675 33C3.21903 33 3.66675 33.4477 3.66675 34V36C3.66675 36.5894 3.78387 37.149 3.99517 37.6585C4.20672 38.1687 3.96466 38.7537 3.4545 38.9653C2.94434 39.1768 2.35927 38.9348 2.14772 38.4246C1.83748 37.6765 1.66675 36.8569 1.66675 36V34C1.66675 33.4477 2.11446 33 2.66675 33Z" fill="#252A2E"/>
<path d="M29.3334 33C29.8857 33 30.3334 33.4477 30.3334 34V36C30.3334 36.8569 30.1627 37.6765 29.8524 38.4246C29.6409 38.9348 29.0558 39.1768 28.5457 38.9653C28.0355 38.7537 27.7934 38.1687 28.005 37.6585C28.2163 37.149 28.3334 36.5894 28.3334 36V34C28.3334 33.4477 28.7811 33 29.3334 33Z" fill="#252A2E"/>
<path d="M5.03482 40.5456C5.24637 40.0354 5.83144 39.7934 6.3416 40.0049C6.85115 40.2162 7.41068 40.3334 8.00008 40.3334H10.0001C10.5524 40.3334 11.0001 40.7811 11.0001 41.3334C11.0001 41.8856 10.5524 42.3334 10.0001 42.3334H8.00008C7.14318 42.3334 6.32363 42.1626 5.57549 41.8524C5.06533 41.6408 4.82327 41.0558 5.03482 40.5456Z" fill="#252A2E"/>
<path d="M26.9653 40.5456C27.1769 41.0558 26.9348 41.6408 26.4247 41.8524C25.6765 42.1626 24.857 42.3334 24.0001 42.3334H22.0001C21.4478 42.3334 21.0001 41.8856 21.0001 41.3334C21.0001 40.7811 21.4478 40.3334 22.0001 40.3334H24.0001C24.5895 40.3334 25.149 40.2162 25.6586 40.0049C26.1687 39.7934 26.7538 40.0354 26.9653 40.5456Z" fill="#252A2E"/>
<path d="M13.0001 41.3334C13.0001 40.7811 13.4478 40.3334 14.0001 40.3334H18.0001C18.5524 40.3334 19.0001 40.7811 19.0001 41.3334C19.0001 41.8856 18.5524 42.3334 18.0001 42.3334H14.0001C13.4478 42.3334 13.0001 41.8856 13.0001 41.3334Z" fill="#252A2E"/>
<path d="M27.3739 18.1213C27.7644 17.7308 27.7644 17.0977 27.3739 16.7071C26.9833 16.3166 26.3502 16.3166 25.9596 16.7071L24.6314 18.0354C24.2408 18.4259 24.2408 19.0591 24.6314 19.4496C25.0219 19.8401 25.6551 19.8401 26.0456 19.4496L27.3739 18.1213Z" fill="#252A2E"/>
<path d="M23.389 22.1062C23.7795 21.7157 23.7795 21.0825 23.389 20.692C22.9985 20.3014 22.3653 20.3014 21.9748 20.692L19.3182 23.3485C18.9277 23.739 18.9277 24.3722 19.3182 24.7627C19.7088 25.1533 20.3419 25.1533 20.7325 24.7627L23.389 22.1062Z" fill="#252A2E"/>
<path d="M18.0759 27.4193C18.4664 27.0288 18.4664 26.3956 18.0759 26.0051C17.6854 25.6146 17.0522 25.6146 16.6617 26.0051L16.0001 26.6667L15.3385 26.0051C14.9479 25.6146 14.3148 25.6146 13.9243 26.0051C13.5337 26.3956 13.5337 27.0288 13.9243 27.4193L14.5859 28.0809L14.0051 28.6616C13.6146 29.0522 13.6146 29.6853 14.0051 30.0758C14.3957 30.4664 15.0288 30.4664 15.4194 30.0758L16.0001 29.4951L16.5808 30.0758C16.9713 30.4664 17.6045 30.4664 17.995 30.0758C18.3855 29.6853 18.3855 29.0522 17.995 28.6616L17.4143 28.0809L18.0759 27.4193Z" fill="#252A2E"/>
<path d="M12.7628 32.7324C13.1533 32.3419 13.1533 31.7087 12.7628 31.3182C12.3723 30.9277 11.7391 30.9277 11.3486 31.3182L8.69202 33.9747C8.3015 34.3653 8.3015 34.9984 8.69202 35.389C9.08255 35.7795 9.71571 35.7795 10.1062 35.389L12.7628 32.7324Z" fill="#252A2E"/>
<path d="M7.44968 38.0455C7.8402 37.655 7.8402 37.0218 7.44968 36.6313C7.05915 36.2408 6.42599 36.2408 6.03547 36.6313L4.70719 37.9596C4.31666 38.3501 4.31666 38.9833 4.70719 39.3738C5.09771 39.7643 5.73088 39.7643 6.1214 39.3738L7.44968 38.0455Z" fill="#252A2E"/>
<path d="M25.8788 39.3738C26.2693 39.7643 26.9025 39.7643 27.293 39.3738C27.6835 38.9833 27.6835 38.3501 27.293 37.9596L25.9647 36.6313C25.5742 36.2408 24.941 36.2408 24.5505 36.6313C24.16 37.0218 24.16 37.655 24.5505 38.0455L25.8788 39.3738Z" fill="#252A2E"/>
<path d="M21.8939 35.389C22.2845 35.7795 22.9176 35.7795 23.3081 35.389C23.6987 34.9984 23.6987 34.3653 23.3081 33.9747L20.6516 31.3182C20.2611 30.9277 19.6279 30.9277 19.2374 31.3182C18.8468 31.7087 18.8468 32.3419 19.2374 32.7324L21.8939 35.389Z" fill="#252A2E"/>
<path d="M11.2677 24.7627C11.6582 25.1533 12.2914 25.1533 12.6819 24.7627C13.0724 24.3722 13.0724 23.739 12.6819 23.3485L10.0254 20.692C9.63483 20.3014 9.00166 20.3014 8.61114 20.692C8.22062 21.0825 8.22062 21.7157 8.61114 22.1062L11.2677 24.7627Z" fill="#252A2E"/>
<path d="M5.95458 19.4496C6.34511 19.8401 6.97827 19.8401 7.3688 19.4496C7.75932 19.0591 7.75932 18.4259 7.3688 18.0354L6.04052 16.7071C5.64999 16.3166 5.01683 16.3166 4.62631 16.7071C4.23578 17.0977 4.23578 17.7308 4.62631 18.1213L5.95458 19.4496Z" fill="#252A2E"/>
<path d="M12.0747 21.1854C12.4718 21.0651 12.8941 21 13.3334 21H14.3334C14.8857 21 15.3334 20.5523 15.3334 20C15.3334 19.4477 14.8857 19 14.3334 19H13.3334C12.6955 19 12.0779 19.0947 11.4947 19.2713C10.9662 19.4315 10.6675 19.9898 10.8277 20.5183C10.9878 21.0469 11.5461 21.3455 12.0747 21.1854Z" fill="#252A2E"/>
<path d="M17.6667 19C17.1145 19 16.6667 19.4477 16.6667 20C16.6667 20.5523 17.1145 21 17.6667 21H18.6667C19.1061 21 19.5284 21.0651 19.9255 21.1854C20.4541 21.3455 21.0124 21.0469 21.1725 20.5183C21.3326 19.9898 21.034 19.4315 20.5054 19.2713C19.9223 19.0947 19.3047 19 18.6667 19H17.6667Z" fill="#252A2E"/>
<path d="M9.18546 24.0746C9.3456 23.546 9.04693 22.9877 8.51837 22.8276C7.98982 22.6675 7.43152 22.9661 7.27138 23.4947C7.09471 24.0778 7.00008 24.6954 7.00008 25.3334V26.3334C7.00008 26.8856 7.4478 27.3334 8.00008 27.3334C8.55237 27.3334 9.00008 26.8856 9.00008 26.3334V25.3334C9.00008 24.894 9.06514 24.4717 9.18546 24.0746Z" fill="#252A2E"/>
<path d="M24.7288 23.4947C24.5686 22.9661 24.0103 22.6675 23.4818 22.8276C22.9532 22.9877 22.6546 23.546 22.8147 24.0746C22.935 24.4717 23.0001 24.894 23.0001 25.3334V26.3334C23.0001 26.8856 23.4478 27.3334 24.0001 27.3334C24.5524 27.3334 25.0001 26.8856 25.0001 26.3334V25.3334C25.0001 24.6954 24.9055 24.0778 24.7288 23.4947Z" fill="#252A2E"/>
<path d="M9.00008 29.6667C9.00008 29.1144 8.55237 28.6667 8.00008 28.6667C7.4478 28.6667 7.00008 29.1144 7.00008 29.6667V30.6667C7.00008 31.3046 7.09471 31.9222 7.27138 32.5054C7.43152 33.0339 7.98982 33.3326 8.51837 33.1724C9.04693 33.0123 9.3456 32.454 9.18546 31.9254C9.06514 31.5283 9.00008 31.106 9.00008 30.6667V29.6667Z" fill="#252A2E"/>
<path d="M25.0001 29.6667C25.0001 29.1144 24.5524 28.6667 24.0001 28.6667C23.4478 28.6667 23.0001 29.1144 23.0001 29.6667V30.6667C23.0001 31.106 22.935 31.5283 22.8147 31.9254C22.6546 32.454 22.9532 33.0123 23.4818 33.1724C24.0103 33.3326 24.5686 33.0339 24.7288 32.5054C24.9055 31.9222 25.0001 31.3046 25.0001 30.6667V29.6667Z" fill="#252A2E"/>
<path d="M12.0747 34.8146C11.5461 34.6545 10.9878 34.9532 10.8277 35.4817C10.6675 36.0103 10.9662 36.5686 11.4947 36.7287C12.0779 36.9054 12.6955 37 13.3334 37H14.3334C14.8857 37 15.3334 36.5523 15.3334 36C15.3334 35.4477 14.8857 35 14.3334 35H13.3334C12.8941 35 12.4718 34.935 12.0747 34.8146Z" fill="#252A2E"/>
<path d="M20.5054 36.7287C21.034 36.5686 21.3326 36.0103 21.1725 35.4817C21.0124 34.9532 20.4541 34.6545 19.9255 34.8146C19.5284 34.935 19.1061 35 18.6667 35H17.6667C17.1145 35 16.6667 35.4477 16.6667 36C16.6667 36.5523 17.1145 37 17.6667 37H18.6667C19.3047 37 19.9223 36.9054 20.5054 36.7287Z" fill="#252A2E"/>
<rect width="64" height="32" rx="16" transform="matrix(1 0 0 -1 47 44)" fill="#217CBB"/>
<path d="M108 28C108 35.1797 102.18 41 95 41C87.8203 41 82 35.1797 82 28C82 20.8203 87.8203 15 95 15C102.18 15 108 20.8203 108 28Z" fill="#fff"/>
</svg>
